src/svg/it-mail.svg

<?xml version="1.0" encoding="utf-8"?>
<!-- Generator: Adobe Illustrator 25.4.1, SVG Export Plug-In . SVG Version: 6.00 Build 0)  -->
<svg version="1.1" id="Livello_1" xmlns="http://www.w3.org/2000/svg" xmlns:xlink="http://www.w3.org/1999/xlink" x="0px" y="0px"
	 viewBox="0 0 24 24" style="enable-background:new 0 0 24 24;" xml:space="preserve">
<g>
	<path d="M20.5,5h-17C2.7,5,2,5.7,2,6.5v11C2,18.3,2.7,19,3.5,19h17c0.8,0,1.5-0.7,1.5-1.5v-11C22,5.7,21.3,5,20.5,5z M20.2,6
		l-7.1,7.2c-0.6,0.6-1.6,0.6-2.2,0L3.8,6H20.2z M3,17.3V6.6L8.3,12L3,17.3z M3.7,18L9,12.7l1.2,1.2c1,0.9,2.6,0.9,3.6,0l1.2-1.2l0,0
		l5.3,5.3H3.7z M15.7,12L21,6.6v10.7L15.7,12z"/>
</g>
</svg>

<svg xmlns="http://www.w3.org/2000/svg" width="24" height="24"
     viewBox="0 0 24 24">
  <title>Mail</title>
  <g>
    <path
      d="M20.5,5H3.5A1.5,1.5,0,0,0,2,6.5v11A1.5,1.5,0,0,0,3.5,19h17A1.5,1.5,0,0,0,22,17.5V6.5A1.5,1.5,0,0,0,20.5,5Zm-.3,1-7.1,7.2a1.6,1.6,0,0,1-2.2,0L3.8,6ZM3,17.3V6.6L8.3,12Zm.7.7L9,12.7l1.2,1.2a2.7,2.7,0,0,0,3.6,0L15,12.7h0L20.3,18Zm12-6L21,6.6V17.3Z"
    />
  </g>
  <g>
    <rect width="24" height="24" fill="none"/>
  </g>
</svg>
